X: 20741
T: SALEM QUICKSTEP
C:
%R: quickstep, polka
B: Elias Howe "The Musician's Companion" 1843 p.74 #1
S: http://imslp.org/wiki/The_Musician's_Companion_(Howe,_Elias)
Z: 2015 John Chambers <jc:trillian.mit.edu>
N: The rhythm of the pick notes conflicts with the ending; not fixed.
M: 2/4
L: 1/16
K: C
% - - - - - - - - - - - - - - - - - - - - - - - - -
ceg |\
c'4 g4 | e2e2 c4 | cccc c2c2 | e2d2 d4 |\
d4 a4 | f2f2 B4 | BBBB B2B2 | d2c2 c4 :|
|:\
c2c2c2c2 | c2c2c2c2 | cccc c2c2 | e2d2 d4 |\
d2d2d2d2 | d2d2d2d2 | d2a2 f2d2 | d2c2 c4 :|
% - - - - - - - - - - - - - - - - - - - - - - - - -

%%sep 1 1 500

